X: 1
T: You've Got to Hide Your Love Away
C: Beatles
R: jig
N: This is NOT the original version of the tune!!!
M: 6/8
L: 1/8
K: G
"A"\
|: "G"G2G "D"A2z | "F"c2c "G"B/A/G2 | "C"G2G G>AA | "F"A3- "D"A3  :| \
"B"\
|: "G"g2z GAB | "C"d2c- cGE | "D7"[G3D3-] [F3D3-] | [E3D3-] [F3D3] :|
"Coda"\
|: "G"G3 "D"A3 | "F"e3 "G"B/A/G2 | "C"G3 A/G/-G2 |1 "F"d/c/-c2- "C"cBA \
                                                :|2 "F"d/c/-c2- "C"ccc | "G"Hd6 |]
